svgs/light/hourglass-start.svg

<svg xmlns="http://www.w3.org/2000/svg" viewBox="0 0 384 512"><!-- Font Awesome Pro 6.0.0-alpha2 by @fontawesome - https://fontawesome.com License - https://fontawesome.com/license (Commercial License) --><path d="M32 432C32 440.844 39.156 448 48 448S64 440.844 64 432C64 404.5 73.094 377.219 89.594 355.188L156.797 265.594C161.063 259.906 161.063 252.094 156.797 246.406L89.594 156.812C73.094 134.781 64 107.5 64 80C64 71.156 56.844 64 48 64S32 71.156 32 80C32 114.375 43.359 148.469 64 176L124 256L64 336C43.359 363.531 32 397.625 32 432ZM16 32H368C376.844 32 384 24.844 384 16S376.844 0 368 0H16C7.156 0 0 7.156 0 16S7.156 32 16 32ZM352 80C352 71.156 344.844 64 336 64S320 71.156 320 80C320 107.5 310.906 134.781 294.406 156.812L227.203 246.406C222.937 252.094 222.937 259.906 227.203 265.594L294.406 355.188C310.906 377.219 320 404.5 320 432C320 440.844 327.156 448 336 448S352 440.844 352 432C352 397.625 340.641 363.531 320 336L260 256L320 176C340.641 148.469 352 114.375 352 80ZM368 480H16C7.156 480 0 487.156 0 496S7.156 512 16 512H368C376.844 512 384 504.844 384 496S376.844 480 368 480ZM192 240C196.75 240 201.25 237.875 204.297 234.25L253.547 175.125C275.766 148.5 288 114.719 288 80C288 71.156 280.844 64 272 64H112C103.156 64 96 71.156 96 80C96 114.719 108.234 148.5 130.438 175.125L179.703 234.25C182.75 237.875 187.25 240 192 240ZM129.109 96H254.891C251.906 117.469 242.969 137.844 228.969 154.625L192 199L155.016 154.625C141.031 137.844 132.094 117.469 129.109 96Z"/></svg>

<svg xmlns="http://www.w3.org/2000/svg" viewBox="0 0 384 512"><!--! Font Awesome Pro 6.0.0-alpha3 by @fontawesome - https://fontawesome.com License - https://fontawesome.com/license (Commercial License) --><path d="M32 432C32 440.8 39.16 448 48 448S64 440.8 64 432c0-27.5 9.094-54.78 25.59-76.81l67.2-89.59c4.266-5.688 4.266-13.5 0-19.19L89.59 156.8C73.09 134.8 64 107.5 64 80C64 71.16 56.84 64 48 64S32 71.16 32 80c0 34.38 11.36 68.47 32 96L124 256L64 336C43.36 363.5 32 397.6 32 432zM16 32h352C376.8 32 384 24.84 384 16S376.8 0 368 0h-352C7.156 0 0 7.156 0 16S7.156 32 16 32zM352 80C352 71.16 344.8 64 336 64S320 71.16 320 80c0 27.5-9.094 54.78-25.59 76.81l-67.2 89.59c-4.266 5.688-4.266 13.5 0 19.19l67.2 89.59C310.9 377.2 320 404.5 320 432c0 8.844 7.156 16 16 16s16-7.156 16-16c0-34.38-11.36-68.47-32-96L260 256L320 176C340.6 148.5 352 114.4 352 80zM368 480h-352C7.156 480 0 487.2 0 496S7.156 512 16 512h352c8.844 0 16-7.156 16-16S376.8 480 368 480zM192 240c4.75 0 9.25-2.125 12.3-5.75l49.25-59.13C275.8 148.5 288 114.7 288 80C288 71.16 280.8 64 272 64h-160C103.2 64 96 71.16 96 80c0 34.72 12.23 68.5 34.44 95.13l49.27 59.13C182.8 237.9 187.3 240 192 240zM129.1 96h125.8c-2.984 21.47-11.92 41.84-25.92 58.63L192 199L155 154.6C141 137.8 132.1 117.5 129.1 96z"/></svg>
